X:1
T:Queen Mary
F:http://www.folkinfo.org/songs
B:Journal of the Folk Song Society, vol.V issue 19, 1915.
S:Sung by Liverpool girls at the Training Home, Southport, Lancashire.
Z:Annie Geddes Gilchrist.
M:6/8
L:1/8
K:D
A|A F A A F A|d c B A2 A|
w:Queen Ma-ry, Queen Ma-ry, my age is six-teen, My
A E F G F G|B2 A A2 A|A F A A G A|
w:fath-er's a farm-er in yon-der green, With plen-ty of mon-ey to
d c B A2 A/ A/|A E F G F E|D d d d2|]
w:dress me in silk, Come a-long, bon-ny las-sie, and give me a waltz.